src/assets/rook-w.svg

<svg xmlns="http://www.w3.org/2000/svg" width="128" height="128" viewBox="0 0 45 45"><g fill="#FFF" stroke="#000" stroke-linejoin="round" stroke-width="1.5"><path d="M11 14V9h4v2h5V9h5v2h5V9h4v5l-3 3v12.5l2 2.5v4H12v-4l2-2.5V17ZM9 39h27v-3H9z"/></g><g fill="none" stroke="#000" stroke-linecap="round"><path stroke-width="1.2" d="M11 14h23"/><path stroke-width=".8" d="M14 17h17M14 29.5h17"/><path stroke-width="1.2" d="M12 32h21"/></g></svg>

<?xml version="1.0" encoding="UTF-8" standalone="no"?>
<!--
	Bástya (fehér)
	Eredeti: http://en.wikipedia.org/wiki/File:Chess_rlt45.svg
	Felhasználási feltételek: Nevezd meg! - Így add tovább! (Creative Commons)
	Uray M. János
	2013-2018
-->
<!DOCTYPE svg PUBLIC "-//W3C//DTD SVG 1.1//EN" "http://www.w3.org/Graphics/SVG/1.1/DTD/svg11.dtd">
<svg xmlns="http://www.w3.org/2000/svg" version="1.1" width="128" height="128" viewBox="0 0 45 45">
	<!-- alap -->
	<g fill="#FFF" stroke="#000" stroke-width="1.5" stroke-linejoin="round">
		<!-- test -->
		<path d="
			M 11,14 L 11,9 L 15,9 L 15,11 L 20,11 L 20,9 L 25,9 L 25,11 L 30,11 L 30,9 L 34,9 L 34,14
			L 31,17 L 31,29.5 L 33,32 L 33,36 L 12,36 L 12,32 L 14,29.5 L 14,17 Z
		"/>
		<!-- talp -->
		<path d="M 9,39 L 36,39 L 36,36 L 9,36 L 9,39 z"/>
	</g>
	<!-- vonalak -->
	<g fill="none" stroke="#000" stroke-linecap="round">
		<line stroke-width="1.2" x1="11" y1="14.0" x2="34" y2="14.0"/>
		<line stroke-width="0.8" x1="14" y1="17.0" x2="31" y2="17.0"/>
		<line stroke-width="0.8" x1="14" y1="29.5" x2="31" y2="29.5"/>
		<line stroke-width="1.2" x1="12" y1="32.0" x2="33" y2="32.0"/>
	</g>
</svg>
